webapp/src/assets/icons/cloudproviders/aws/networking_content_delivery/vpn_gateway.svg

<?xml version="1.0" encoding="UTF-8"?>
<svg width="48px" height="48px" viewBox="0 0 48 48" version="1.1" xmlns="http://www.w3.org/2000/svg" xmlns:xlink="http://www.w3.org/1999/xlink">
    <title>Icon-Resource/Networking-and-Content-Delivery/Res_Amazon-VPC_VPN-Gateway_48</title>
    <g id="Icon-Resource/Networking-and-Content-Delivery/Res_Amazon-VPC_VPN-Gateway_48" stroke="none" stroke-width="1" fill="none" fill-rule="evenodd">
        <path d="M24.0015,25.4385 C24.6565,25.4385 25.1885,25.9705 25.1885,26.6255 C25.1885,27.2815 24.6565,27.8135 24.0015,27.8135 C23.3465,27.8135 22.8135,27.2815 22.8135,26.6255 C22.8135,25.9705 23.3465,25.4385 24.0015,25.4385 L24.0015,25.4385 Z M23.0015,29.6365 L23.0015,32.6915 L25.0015,32.6915 L25.0015,29.6365 C26.2685,29.2145 27.1895,28.0325 27.1895,26.6255 C27.1895,24.8685 25.7595,23.4385 24.0015,23.4385 C22.2435,23.4385 20.8135,24.8685 20.8135,26.6255 C20.8135,28.0325 21.7345,29.2145 23.0015,29.6365 L23.0015,29.6365 Z M24.0015,44.0015 C12.9725,44.0015 3.9995,35.0295 3.9995,24.0015 C3.9995,12.9725 12.9725,4.0005 24.0015,4.0005 C35.0295,4.0005 44.0025,12.9725 44.0025,24.0015 C44.0025,35.0295 35.0295,44.0015 24.0015,44.0015 L24.0015,44.0015 Z M24.0015,2.0005 C11.8695,2.0005 1.9995,11.8695 1.9995,24.0015 C1.9995,36.1325 11.8695,46.0015 24.0015,46.0015 C36.1335,46.0015 46.0025,36.1325 46.0025,24.0015 C46.0025,11.8695 36.1335,2.0005 24.0015,2.0005 L24.0015,2.0005 Z M32.6195,34.3765 L15.3755,34.3695 L15.3805,21.5005 L32.6265,21.5075 L32.6195,34.3765 Z M19.7545,16.0965 C19.7585,14.9175 20.2075,13.8135 21.0195,12.9845 C21.8205,12.1675 22.8815,11.7165 24.0075,11.7165 L24.0225,11.7165 C25.1475,11.7195 26.2045,12.1795 26.9985,13.0095 C27.7995,13.8475 28.2385,14.9605 28.2345271,16.1485 L28.2345271,19.5055 L19.7385,19.5025 L19.7545,16.0965 Z M33.6265,19.5075 L30.2345,19.5065 L30.2345,16.1515 C30.2405,14.4485 29.6045,12.8405 28.4435,11.6275 C27.2715,10.4005 25.7025,9.7215 24.0275,9.7165 L24.0075,9.7165 C22.3395,9.7165 20.7725,10.3795 19.5915,11.5845 C18.4125,12.7875 17.7605,14.3875 17.7545,16.0885 L17.7385,19.5015 L14.3805,19.5015 C14.1155,19.5015 13.8605,19.6065 13.6735,19.7935 C13.4855,19.9815 13.3805,20.2355 13.3805,20.5015 L13.3755,35.3695 C13.3755,35.9205 13.8225,36.3695 14.3755,36.3695 L33.6195,36.3765 C34.1715,36.3765 34.6195,35.9295 34.6195,35.3765 L34.6265,20.5075 C34.6265,20.2435 34.5215,19.9885 34.3335,19.8005 C34.1465,19.6135 33.8925,19.5075 33.6265,19.5075 L33.6265,19.5075 Z" id="AWS-Amazon-VPC_VPN-gateway_Resource-Icon_light-bg" fill="#8C4FFF"></path>
    </g>
</svg>

<svg width="48" height="48" xmlns="http://www.w3.org/2000/svg"><path d="M24.002 25.439A1.188 1.188 0 1 1 24 27.814a1.188 1.188 0 0 1 .002-2.375Zm-1 4.198v3.054h2v-3.055a3.18 3.18 0 0 0 2.188-3.01A3.191 3.191 0 0 0 24 23.438a3.191 3.191 0 0 0-3.188 3.188 3.18 3.18 0 0 0 2.189 3.01Zm1 14.364C12.972 44.002 4 35.03 4 24.002s8.973-20 20.002-20c11.027 0 20 8.971 20 20 0 11.028-8.973 20-20 20Zm0-42C11.87 2 2 11.87 2 24s9.87 22 22.002 22c12.131 0 22-9.868 22-22s-9.869-22-22-22Zm8.618 32.376-17.244-.008.005-12.869 17.245.008-.006 12.869Zm-12.865-18.28a4.438 4.438 0 0 1 1.265-3.113 4.16 4.16 0 0 1 2.988-1.268h.015a4.108 4.108 0 0 1 2.976 1.293 4.489 4.489 0 0 1 1.236 3.14v3.357l-8.497-.003.017-3.407Zm13.872 3.41h-3.393V16.15a6.473 6.473 0 0 0-1.79-4.524 6.089 6.089 0 0 0-4.416-1.91h-.02a6.14 6.14 0 0 0-4.416 1.867 6.428 6.428 0 0 0-1.837 4.505l-.017 3.413h-3.357a1 1 0 0 0-1 1l-.005 14.868a1 1 0 0 0 1 1l19.244.007a1 1 0 0 0 1-1l.007-14.87a1 1 0 0 0-1-1Z" fill="#8C4FFF" fill-rule="evenodd"/></svg>
